dist/icons/activities/1.svg

<svg width="40" height="40" viewBox="0 0 40 40" fill="none" xmlns="http://www.w3.org/2000/svg">
<g clip-path="url(#clip0)">
<path d="M39.6393 23.9907C38.4706 22.3626 37.2859 22.3366 34.3198 23.8974L28.5709 27.4121C27.7189 27.8655 25.9702 28.0015 24.2741 28.0302C24.5755 27.4028 24.4408 26.6541 23.8715 25.8034C23.3441 25.0167 22.6261 24.3914 21.7927 23.964C23.1741 22.8413 24.0008 21.1699 24.0008 19.3332C24.0008 16.0251 21.3094 13.333 18.0006 13.333C14.6918 13.333 12.0004 16.0251 12.0004 19.3332C12.0004 20.3206 12.2457 21.2633 12.6851 22.104C12.6764 22.098 12.6671 22.0926 12.6591 22.086C10.2657 20.2812 6.26687 20.0266 4.66749 19.9992V17.9812H0V39.3339H4.66682V37.3338H13.3338C14.6938 37.3338 16.0659 37.2298 17.4112 37.0258L26.0535 35.7118C26.3682 35.7078 26.6869 35.6704 26.9709 35.6064C27.7669 35.4944 28.5276 35.1144 29.1723 34.5064L39.2773 26.6368L39.2926 26.6241C40.08 25.9728 40.232 24.8154 39.6393 23.9907ZM15.4472 23.2327C14.1211 22.3646 13.3338 20.9166 13.3338 19.3332C13.3338 16.7598 15.4278 14.6664 18.0006 14.6664C20.5733 14.6664 22.6674 16.7598 22.6674 19.3332C22.6674 21.0573 21.7401 22.606 20.2327 23.426C20.15 23.41 20.066 23.402 19.9827 23.3893C19.8993 23.3767 19.8173 23.362 19.7327 23.3527C19.516 23.3287 19.298 23.314 19.0793 23.314H16.4792C16.1439 23.3147 15.7972 23.2873 15.4472 23.2327ZM3.33344 38.0005H1.33338V19.3145H3.33344V20.0219V37.3345V38.0005ZM38.4493 25.5921L28.3269 33.4743L28.2756 33.519C27.8289 33.9464 27.3136 34.2117 26.7196 34.2977C26.4769 34.3517 26.2349 34.379 26.0009 34.379L17.2106 35.7078C15.9312 35.9024 14.6265 36.0011 13.3338 36.0011H4.66682V21.3346C6.14487 21.3653 9.80433 21.6039 11.8564 23.1507C12.7471 23.8227 13.8145 24.2787 14.9532 24.4974L14.9632 24.5034L15.0898 24.5254C15.0965 24.5267 15.1025 24.5267 15.1092 24.528C15.3278 24.5654 15.5492 24.5954 15.7725 24.6147C15.7799 24.6154 15.7872 24.6167 15.7939 24.6174C16.0205 24.6367 16.2485 24.6481 16.4785 24.6481H19.0786C19.4453 24.6481 19.812 24.6914 20.168 24.7767L20.2107 24.7874C21.2594 25.0474 22.1707 25.6641 22.7621 26.5461C23.0428 26.9641 23.1534 27.3115 23.0594 27.4748C22.8814 27.7828 22.0554 27.9722 21.2174 28.0088C20.9447 28.0042 20.696 28.0008 20.478 28.0008H14.0005C11.9131 28.0008 10.667 28.9975 10.667 30.6676C10.667 31.0356 10.965 31.3343 11.3337 31.3343C11.7024 31.3343 12.0004 31.0356 12.0004 30.6676C12.0004 30.3376 12.0004 29.3342 14.0005 29.3342H20.4633C20.6147 29.3435 20.9054 29.3562 21.2714 29.3429C21.386 29.3449 21.5047 29.3469 21.6261 29.3489C24.7548 29.4069 27.6889 29.3909 29.2316 28.5695L34.9772 25.0561C37.7266 23.6114 38.0033 23.9987 38.5553 24.7681C38.74 25.0241 38.6926 25.3847 38.4493 25.5921Z" fill="#DEC377"/>
<path d="M21.3341 19.3332C21.3341 17.4951 19.8387 15.9998 18.0007 15.9998C16.1626 15.9998 14.6672 17.4951 14.6672 19.3332C14.6672 21.1713 16.1626 22.6666 18.0007 22.6666C19.8387 22.6666 21.3341 21.1713 21.3341 19.3332ZM18.0007 21.3333C16.898 21.3333 16.0006 20.4359 16.0006 19.3332C16.0006 18.2305 16.898 17.3331 18.0007 17.3331C19.1034 17.3331 20.0007 18.2305 20.0007 19.3332C20.0007 20.4359 19.1034 21.3333 18.0007 21.3333Z" fill="#DEC377"/>
<path d="M28.0009 12.6664C31.3097 12.6664 34.0011 9.97432 34.0011 6.66621C34.0011 3.35811 31.3097 0.666016 28.0009 0.666016C24.6922 0.666016 22.0007 3.35811 22.0007 6.66621C22.0007 9.97432 24.6922 12.6664 28.0009 12.6664ZM28.0009 1.99939C30.5737 1.99939 32.6678 4.0928 32.6678 6.66621C32.6678 9.23963 30.5737 11.333 28.0009 11.333C25.4282 11.333 23.3341 9.23963 23.3341 6.66621C23.3341 4.0928 25.4282 1.99939 28.0009 1.99939Z" fill="#DEC377"/>
<path d="M28.0009 9.99965C29.839 9.99965 31.3344 8.50427 31.3344 6.66621C31.3344 4.82815 29.839 3.33276 28.0009 3.33276C26.1629 3.33276 24.6675 4.82815 24.6675 6.66621C24.6675 8.50427 26.1629 9.99965 28.0009 9.99965ZM28.0009 4.66614C29.1036 4.66614 30.001 5.5635 30.001 6.66621C30.001 7.76891 29.1036 8.66627 28.0009 8.66627C26.8982 8.66627 26.0009 7.76891 26.0009 6.66621C26.0009 5.5635 26.8982 4.66614 28.0009 4.66614Z" fill="#DEC377"/>
</g>
<defs>
<clipPath id="clip0">
<rect width="40" height="40" fill="white"/>
</clipPath>
</defs>
</svg>

<svg width="40" height="40" fill="none" xmlns="http://www.w3.org/2000/svg"><g clip-path="url(#clip0)" fill="#DEC377"><path d="M39.64 23.99c-1.17-1.627-2.354-1.653-5.32-.093l-5.75 3.515c-.851.454-2.6.59-4.296.618.302-.627.167-1.376-.402-2.227a5.531 5.531 0 00-2.08-1.839 5.936 5.936 0 002.209-4.63 6.008 6.008 0 00-6-6.001c-3.31 0-6 2.692-6 6 0 .988.245 1.93.684 2.771-.009-.006-.018-.011-.026-.018-2.393-1.805-6.392-2.06-7.992-2.087v-2.018H0v21.353h4.667v-2h8.667c1.36 0 2.732-.104 4.077-.308l8.642-1.314c.315-.004.634-.042.918-.106.796-.112 1.557-.492 2.201-1.1l10.105-7.87.016-.012a1.951 1.951 0 00.346-2.633zm-24.193-.757a4.635 4.635 0 01-2.113-3.9A4.672 4.672 0 0118 14.666a4.672 4.672 0 014.666 4.667 4.63 4.63 0 01-2.434 4.093c-.083-.016-.167-.024-.25-.037-.084-.012-.166-.027-.25-.036a5.936 5.936 0 00-.654-.039h-2.6c-.335 0-.682-.027-1.032-.081zM3.333 38h-2V19.315h2V38zM38.45 25.592l-10.122 7.882-.051.045c-.447.427-.962.693-1.556.779a3.32 3.32 0 01-.72.081l-8.79 1.329a25.94 25.94 0 01-3.876.293H4.667V21.335c1.478.03 5.137.269 7.19 1.816.89.672 1.958 1.128 3.096 1.346l.01.006.127.022.02.003c.218.037.44.067.663.087l.02.002c.227.02.456.031.686.031h2.6c.366 0 .733.043 1.089.129l.043.01c1.048.26 1.96.877 2.551 1.76.28.417.391.764.297.928-.178.308-1.004.497-1.842.534a45.335 45.335 0 00-.739-.008H14c-2.087 0-3.333.996-3.333 2.667a.667.667 0 101.333 0c0-.33 0-1.334 2-1.334h6.463a8.4 8.4 0 00.808.009l.355.006c3.129.058 6.063.042 7.606-.78l5.745-3.513c2.75-1.445 3.026-1.057 3.578-.288a.615.615 0 01-.106.824z"/><path d="M21.334 19.333A3.337 3.337 0 0018.001 16a3.337 3.337 0 00-3.334 3.333 3.337 3.337 0 003.334 3.334 3.337 3.337 0 003.333-3.334zm-3.333 2c-1.103 0-2-.897-2-2 0-1.102.897-2 2-2 1.102 0 2 .898 2 2 0 1.103-.898 2-2 2zM28 12.666c3.31 0 6.001-2.692 6.001-6s-2.691-6-6-6-6 2.692-6 6 2.691 6 6 6zM28 2a4.672 4.672 0 014.668 4.667A4.672 4.672 0 0128 11.333a4.672 4.672 0 01-4.667-4.667A4.672 4.672 0 0128.001 2z"/><path d="M28 10a3.337 3.337 0 003.334-3.334 3.337 3.337 0 00-3.333-3.333 3.337 3.337 0 00-3.334 3.333A3.337 3.337 0 0028.002 10zm0-5.334c1.104 0 2.001.897 2.001 2s-.897 2-2 2-2-.897-2-2 .897-2 2-2z"/></g><defs><clipPath id="clip0"><path fill="#fff" d="M0 0h40v40H0z"/></clipPath></defs></svg>
